X: 1611
T: Glengariff Bay
R:hornpipe
N:"Collected by F. O'Neill"
B:O'Neill's 1611
Z:Transcribed by Michael Hogan
M:2/4
L:1/16
K:G
(3DEF | G2D2 G2D2 | GABG AGFD | BGBd cBAG | E2A2 AcBA |
G2D2 G2D2 | GABG AFDc | BABc dBAB | G2GG G2 :|
|: (dc) | BGBd gfga | bagf gfed | efgf edcB | cBAG FAdF |
G2D2 G2D2 | GABG AFDc | BABc dBAB | G2GG G2 :||


